icon-themes/sifr_svg/cmd/sc_datasubtotals.svg

<svg viewBox="0 0 16 16" xmlns="http://www.w3.org/2000/svg"><path d="m1 1v2 1h2v-1h4v-2zm9 0c-.554 0-1 .446-1 1v12c0 .554.446 1 1 1h4c.554 0 1-.446 1-1v-12c0-.554-.446-1-1-1zm1 2h2v2h-2zm-8 2v2h-2v2h2v2h2v-2h2v-2h-2v-2zm8 2h2v2h-2zm0 4h.041016 1.917968.041016v2h-2zm-10 1v1 2h6v-2h-4v-1z" fill="#555753"/></svg>

<svg xmlns="http://www.w3.org/2000/svg" viewBox="0 0 16 16">
  <path
     style="fill:#555753"
     d="M 1 1 L 1 3 L 1 4 L 3 4 L 3 3 L 7 3 L 7 1 L 1 1 z M 10 1 C 9.446 1 9 1.446 9 2 L 9 14 C 9 14.554 9.446 15 10 15 L 14 15 C 14.554 15 15 14.554 15 14 L 15 2 C 15 1.446 14.554 1 14 1 L 10 1 z M 11 3 L 13 3 L 13 5 L 11 5 L 11 3 z M 3 5 L 3 7 L 1 7 L 1 9 L 3 9 L 3 11 L 5 11 L 5 9 L 7 9 L 7 7 L 5 7 L 5 5 L 3 5 z M 11 7 L 13 7 L 13 9 L 11 9 L 11 7 z M 11 11 L 11.041016 11 L 12.958984 11 L 13 11 L 13 13 L 11 13 L 11 11 z M 1 12 L 1 13 L 1 15 L 7 15 L 7 13 L 3 13 L 3 12 L 1 12 z "
     />
</svg>
